X:37
T:Neil Taylor's Jig
M:6/8
L:1/8
C:WillTaylor
S:WillTaylor ms.
K:G
D | GAB BGF | GBd g2e | dBG GFG | FAF DEF | GAB AGF | GBd g2e | dBG FGA | DAFG2d :|
|: gag gdB | cde dBG | DFA Acc | Aed B2d | gag gdB | cde dBG | fed cAF | DAFG2G :|
